images/icon-equipment.svg

<svg width="90" height="90" viewBox="0 0 90 90" fill="none" xmlns="http://www.w3.org/2000/svg">
<g id="icon-equipment">
<g id="Page 1">
<g id="026   Drill">
<path id="Shape" d="M84.2136 17.4854H78.5407V16.0672C78.5407 13.7174 76.6358 11.8125 74.286 11.8125H65.7767V11.8451C64.496 11.835 63.2505 12.2645 62.2482 13.062L45.3274 26.7038C44.5738 25.3928 43.1791 24.5822 41.667 24.5765H18.9754C16.6256 24.5765 14.7208 26.4814 14.7208 28.8312V38.7587H7.62966C5.27988 38.7587 3.375 40.6636 3.375 43.0134V62.8685C3.38257 64.6699 4.52385 66.2714 6.22421 66.8664C6.22421 66.9515 6.21144 67.0366 6.21144 67.1231C6.21144 72.606 10.6562 77.0507 16.139 77.0507C21.6218 77.0507 26.0665 72.606 26.0665 67.1231H34.5759C34.5697 72.4231 38.7277 76.7933 44.0215 77.0506C49.3152 77.3079 53.8775 73.3615 54.3853 68.0859C54.8931 62.8103 51.1673 58.0662 45.9216 57.309V45.9633L65.8803 25.4884C66.3082 27.4387 68.0347 28.829 70.0314 28.8312H72.8678V37.3405C72.8678 38.907 74.1377 40.1769 75.7043 40.1769V51.6049C71.6326 52.0432 68.6132 54.3379 68.6132 57.1956C68.6132 60.0533 71.6326 62.348 75.7043 62.7862V74.2142C75.7043 74.9975 76.3392 75.6325 77.1225 75.6325C77.9058 75.6325 78.5407 74.9975 78.5407 74.2142V71.2955C82.6124 70.8573 85.6318 68.5626 85.6318 65.7049C85.6318 62.8472 82.6124 60.5525 78.5407 60.1143V54.2769C82.6124 53.8386 85.6318 51.544 85.6318 48.6862C85.6318 45.8285 82.6124 43.5339 78.5407 43.0956V40.1769C80.1072 40.1769 81.3772 38.907 81.3772 37.3405V28.8312H84.2136C86.5634 28.8312 88.4683 26.9263 88.4683 24.5765V21.74C88.4683 19.3903 86.5634 17.4854 84.2136 17.4854ZM71.4496 57.1956C71.4496 56.061 73.1997 54.8229 75.7043 54.4683V59.9228C73.1997 59.5683 71.4496 58.3302 71.4496 57.1956ZM82.7954 65.7049C82.7954 66.8395 81.0453 68.0776 78.5407 68.4321V62.9777C81.0453 63.3322 82.7954 64.5703 82.7954 65.7049ZM82.7954 48.6862C82.7954 49.8208 81.0453 51.0589 78.5407 51.4135V45.959C81.0453 46.3136 82.7954 47.5517 82.7954 48.6862ZM75.7043 16.0672V17.4854H71.4298C71.436 16.4906 71.1786 15.5119 70.6838 14.6489H74.286C75.0693 14.6489 75.7043 15.2839 75.7043 16.0672ZM43.0852 28.8312V48.6862H26.0665C25.2833 48.6862 24.6483 48.0513 24.6483 47.268V27.4129H41.667C42.4502 27.4129 43.0852 28.0479 43.0852 28.8312ZM6.21144 62.8685V43.0134C6.21144 42.2301 6.8464 41.5951 7.62966 41.5951H14.7208V57.309C11.0255 57.848 7.94382 60.4121 6.74186 63.9477C6.41084 63.6868 6.21581 63.2899 6.21144 62.8685ZM16.139 74.2142C12.2227 74.2142 9.04788 71.0394 9.04788 67.1231C9.04788 63.2068 12.2227 60.032 16.139 60.032C20.0553 60.032 23.2301 63.2068 23.2301 67.1231C23.2254 71.0375 20.0534 74.2095 16.139 74.2142ZM25.6482 64.2867C24.5357 60.5865 21.3807 57.8656 17.5572 57.309V28.8312C17.5572 28.0479 18.1922 27.4129 18.9754 27.4129H21.8119V47.268C21.8119 49.6178 23.7168 51.5227 26.0665 51.5227H43.0852V57.309C39.2644 57.8682 36.1127 60.5886 35.0013 64.2867H25.6482ZM51.5945 67.1231C51.5945 71.0394 48.4197 74.2142 44.5034 74.2142C40.5871 74.2142 37.4123 71.0394 37.4123 67.1231C37.4123 63.2068 40.5871 60.032 44.5034 60.032C48.4178 60.0367 51.5898 63.2088 51.5945 67.1231ZM45.9216 29.865L64.0281 15.2715C64.6128 14.8029 65.3599 14.5859 66.1047 14.6684C66.8495 14.7508 67.531 15.126 67.9991 15.7112C68.4637 16.2848 68.677 17.0218 68.5905 17.7548C66.9949 18.3355 65.8995 19.812 65.8065 21.5075L45.9216 41.8958V29.865ZM78.5407 37.3405H75.7043V28.8312H78.5407V37.3405ZM85.6318 24.5765C85.6318 25.3598 84.9969 25.9947 84.2136 25.9947H70.0314C69.2481 25.9947 68.6132 25.3598 68.6132 24.5765V21.74C68.6132 20.9568 69.2481 20.3218 70.0314 20.3218H84.2136C84.9969 20.3218 85.6318 20.9568 85.6318 21.74V24.5765Z" fill="#F1F5F7"/>
<path id="Shape_2" d="M28.9029 34.5041C29.279 34.504 29.6397 34.3545 29.9056 34.0885L31.3238 32.6703C31.8613 32.1138 31.8536 31.2293 31.3066 30.6822C30.7595 30.1352 29.875 30.1275 29.3185 30.665L27.9003 32.0832C27.4948 32.4888 27.3735 33.0987 27.593 33.6285C27.8124 34.1584 28.3294 34.504 28.9029 34.5041Z" fill="#F1F5F7"/>
<path id="Shape_3" d="M28.9029 41.5952C29.279 41.5951 29.6397 41.4456 29.9056 41.1797L38.4149 32.6703C38.9524 32.1138 38.9447 31.2293 38.3977 30.6822C37.8506 30.1352 36.9661 30.1275 36.4096 30.665L27.9003 39.1743C27.4948 39.5799 27.3735 40.1898 27.593 40.7197C27.8124 41.2495 28.3294 41.5951 28.9029 41.5952Z" fill="#F1F5F7"/>
<path id="Shape_4" d="M16.1389 62.8684C13.7892 62.8684 11.8843 64.7733 11.8843 67.1231C11.8843 69.4729 13.7892 71.3777 16.1389 71.3777C18.4887 71.3777 20.3936 69.4729 20.3936 67.1231C20.3936 64.7733 18.4887 62.8684 16.1389 62.8684ZM16.1389 68.5413C15.3557 68.5413 14.7207 67.9063 14.7207 67.1231C14.7207 66.3398 15.3557 65.7049 16.1389 65.7049C16.9222 65.7049 17.5572 66.3398 17.5572 67.1231C17.5572 67.9063 16.9222 68.5413 16.1389 68.5413Z" fill="#F1F5F7"/>
<path id="Shape_5" d="M40.2488 67.1231C40.2488 69.4729 42.1537 71.3777 44.5034 71.3777C46.8532 71.3777 48.7581 69.4729 48.7581 67.1231C48.7581 64.7733 46.8532 62.8684 44.5034 62.8684C42.1537 62.8684 40.2488 64.7733 40.2488 67.1231ZM45.9217 67.1231C45.9217 67.9063 45.2867 68.5413 44.5034 68.5413C43.7202 68.5413 43.0852 67.9063 43.0852 67.1231C43.0852 66.3398 43.7202 65.7049 44.5034 65.7049C45.2867 65.7049 45.9217 66.3398 45.9217 67.1231Z" fill="#F1F5F7"/>
<path id="Shape_6" d="M27.4846 54.3591H26.0664C25.2832 54.3591 24.6482 54.9941 24.6482 55.7773C24.6482 56.5606 25.2832 57.1956 26.0664 57.1956H27.4846C28.2679 57.1956 28.9029 56.5606 28.9029 55.7773C28.9029 54.9941 28.2679 54.3591 27.4846 54.3591Z" fill="#F1F5F7"/>
</g>
</g>
</g>
</svg>

<svg xmlns="http://www.w3.org/2000/svg" width="90" height="90" fill="none"><g fill="#F1F5F7"><path d="M84.214 17.485H78.54v-1.418a4.255 4.255 0 0 0-4.255-4.255h-8.51v.033a5.596 5.596 0 0 0-3.528 1.217l-16.92 13.642a4.24 4.24 0 0 0-3.661-2.128H18.975a4.255 4.255 0 0 0-4.254 4.255v9.928H7.63a4.255 4.255 0 0 0-4.255 4.254v19.855a4.255 4.255 0 0 0 2.85 3.998c0 .085-.014.17-.014.257 0 5.483 4.445 9.928 9.928 9.928 5.483 0 9.928-4.445 9.928-9.928h8.509a9.928 9.928 0 1 0 11.346-9.814V45.963L65.88 25.488a4.255 4.255 0 0 0 4.151 3.343h2.837v8.51a2.836 2.836 0 0 0 2.836 2.836v11.428c-4.071.438-7.09 2.733-7.09 5.59 0 2.858 3.019 5.153 7.09 5.591v11.428a1.418 1.418 0 1 0 2.837 0v-2.918c4.071-.439 7.09-2.733 7.09-5.591s-3.019-5.152-7.09-5.59v-5.838c4.071-.438 7.09-2.733 7.09-5.59 0-2.858-3.019-5.153-7.09-5.591v-2.92a2.836 2.836 0 0 0 2.836-2.836v-8.509h2.837a4.255 4.255 0 0 0 4.254-4.255V21.74a4.255 4.255 0 0 0-4.254-4.255ZM71.45 57.195c0-1.134 1.75-2.372 4.254-2.727v5.455c-2.504-.355-4.254-1.593-4.254-2.727Zm11.345 8.51c0 1.135-1.75 2.373-4.254 2.727v-5.454c2.504.354 4.254 1.592 4.254 2.727Zm0-17.019c0 1.135-1.75 2.373-4.254 2.727V45.96c2.504.355 4.254 1.593 4.254 2.727Zm-7.09-32.619v1.418H71.43a5.632 5.632 0 0 0-.746-2.836h3.602c.783 0 1.418.635 1.418 1.418Zm-32.62 12.764v19.855H26.067a1.418 1.418 0 0 1-1.419-1.418V27.413h17.019c.783 0 1.418.635 1.418 1.418ZM6.211 62.87V43.012c0-.783.635-1.418 1.419-1.418h7.09V57.31a9.943 9.943 0 0 0-7.978 6.639 1.393 1.393 0 0 1-.53-1.08Zm9.928 11.345a7.091 7.091 0 1 1 7.091-7.09 7.1 7.1 0 0 1-7.091 7.09Zm9.51-9.927a9.945 9.945 0 0 0-8.092-6.978V28.831c0-.783.635-1.418 1.418-1.418h2.837v19.855a4.255 4.255 0 0 0 4.255 4.255h17.018v5.786a9.945 9.945 0 0 0-8.084 6.978h-9.353Zm25.945 2.836a7.091 7.091 0 1 1-7.09-7.091 7.1 7.1 0 0 1 7.09 7.091Zm-5.672-37.258 18.106-14.593a2.824 2.824 0 0 1 3.971.44c.465.573.678 1.31.592 2.043a4.24 4.24 0 0 0-2.784 3.753L45.921 41.895V29.865Zm32.619 7.476h-2.837v-8.51h2.837v8.51Zm7.09-12.765c0 .784-.634 1.419-1.417 1.419H70.03a1.418 1.418 0 0 1-1.418-1.419V21.74c0-.783.635-1.418 1.418-1.418h14.183c.783 0 1.418.635 1.418 1.418v2.837Z"/><path d="M28.903 34.504c.376 0 .737-.15 1.003-.415l1.418-1.419a1.418 1.418 0 0 0-2.006-2.005L27.9 32.083a1.418 1.418 0 0 0 1.003 2.421ZM28.903 41.595c.376 0 .737-.15 1.003-.415l8.509-8.51a1.418 1.418 0 0 0-2.005-2.005l-8.51 8.51a1.418 1.418 0 0 0 1.003 2.42ZM16.139 62.868a4.255 4.255 0 1 0 0 8.51 4.255 4.255 0 0 0 0-8.51Zm0 5.673a1.418 1.418 0 1 1 0-2.836 1.418 1.418 0 0 1 0 2.836ZM40.249 67.123a4.255 4.255 0 1 0 8.509 0 4.255 4.255 0 0 0-8.51 0Zm5.673 0a1.418 1.418 0 1 1-2.837 0 1.418 1.418 0 0 1 2.837 0ZM27.485 54.36h-1.419a1.418 1.418 0 0 0 0 2.836h1.419a1.418 1.418 0 0 0 0-2.837Z"/></g></svg>
